svg/u25fe.svg

<svg viewBox="0 0 128 128" xmlns="http://www.w3.org/2000/svg">
  <g>
    <path d="M39.01,36.24h50c1.6,0,2.9,1.3,2.9,2.9v0v50c0,1.6-1.3,2.9-2.9,2.9h-50c-1.6,0-2.9-1.3-2.9-2.9l0,0 v-49.9c-0.08-1.58,1.14-2.92,2.72-3C38.89,36.24,38.95,36.23,39.01,36.24z" fill="#575757"/>
    <path d="M39.01,36.24h45.4c1.6,0,2.9,1.3,2.9,2.9v0v45.4c0,1.6-1.3,2.9-2.9,2.9l0,0h-45.4 c-1.6,0-2.9-1.3-2.9-2.9l0,0v-45.3c-0.08-1.58,1.14-2.92,2.72-3C38.89,36.24,38.95,36.23,39.01,36.24z" fill="#424242"/>
    <path d="M56.31,40.74c0-1.5-1-1.9-6.9-1.7c-4.9,0.2-7.3,0.8-8.8,2.6s-1.9,5.4-1.9,9.8c0,3.1,0,5.9,1.6,5.9 c2.2,0,2.2-5,4-7.9C47.61,43.94,56.31,42.74,56.31,40.74z" fill="#787878"/>
  </g>
</svg>

<svg viewBox="0 0 128 128" xmlns="http://www.w3.org/2000/svg">
  <defs/>
  <path d="M39.01,36.24 L89.01,36.24 C90.61,36.24 91.91,37.54 91.91,39.14 L91.91,39.14 L91.91,89.14 C91.91,90.74 90.61,92.04 89.01,92.04 L39.01,92.04 C37.41,92.04 36.11,90.74 36.11,89.14 L36.11,89.14 L36.11,39.24 C36.03,37.66 37.25,36.32 38.83,36.24 C38.89,36.24 38.95,36.23 39.01,36.24 Z" fill="#575757"/>
  <path d="M39.01,36.24 L84.41,36.24 C86.01,36.24 87.31,37.54 87.31,39.14 L87.31,39.14 L87.31,84.54 C87.31,86.14 86.01,87.44 84.41,87.44 L84.41,87.44 L39.01,87.44 C37.41,87.44 36.11,86.14 36.11,84.54 L36.11,84.54 L36.11,39.24 C36.03,37.66 37.25,36.32 38.83,36.24 C38.89,36.24 38.95,36.23 39.01,36.24 Z" fill="#424242"/>
  <path d="M56.31,40.74 C56.31,39.24 55.31,38.84 49.41,39.04 C44.51,39.24 42.11,39.84 40.61,41.64 C39.11,43.44 38.71,47.04 38.71,51.44 C38.71,54.54 38.71,57.34 40.31,57.34 C42.51,57.34 42.51,52.34 44.31,49.44 C47.61,43.94 56.31,42.74 56.31,40.74 Z" fill="#787878"/>
</svg>
